svg/u1f635.svg

<svg viewBox="0 0 128 128" xmlns="http://www.w3.org/2000/svg">
  <g id="gold">
    <radialGradient id="face_1_" cx="63.6" cy="1992.9" gradientTransform="matrix(1 0 0 1 0 -1930)" gradientUnits="userSpaceOnUse" r="56.9597">
      <stop offset="0.5" stop-color="#FDE030"/>
      <stop offset="0.92" stop-color="#F7C02B"/>
      <stop offset="1" stop-color="#F4A223"/>
    </radialGradient>
    <path id="face" d="M63.6,118.8c-27.9,0-58-17.5-58-55.9S35.7,7,63.6,7c15.5,0,29.8,5.1,40.4,14.4 c11.5,10.2,17.6,24.6,17.6,41.5s-6.1,31.2-17.6,41.4C93.4,113.6,79,118.8,63.6,118.8z" fill="url(#face_1_)"/>
    <path d="M111.49,29.67c5.33,8.6,8.11,18.84,8.11,30.23c0,16.9-6.1,31.2-17.6,41.4 c-10.6,9.3-25,14.5-40.4,14.5c-18.06,0-37-7.35-48.18-22.94c10.76,17.66,31,25.94,50.18,25.94c15.4,0,29.8-5.2,40.4-14.5 c11.5-10.2,17.6-24.5,17.6-41.4C121.6,50.16,118.13,38.84,111.49,29.67z" fill="#EB8F00"/>
  </g>
  <g id="facial_expressions">
    <path id="mouth" d="M82.56,92.85c0,7.58-8.31,12-18.56,12s-18.56-4.45-18.56-12S53.75,77,64,77 S82.56,85.27,82.56,92.85z" fill="#422B0D"/>
    <path d="M46.27,56.6l8.46-7.87c1.2-1.49,1.38-3.5,0.17-4.7c-1.59-1.6-4.41-1.21-5.94,0.61 c-0.08,0.15-0.14,0.19-0.22,0.34l-6,8.72l-8.12-7.57c-0.12-0.13-0.19-0.15-0.3-0.28c-1.89-1.44-4.73-1.2-5.92,0.71 c-0.93,1.44-0.31,3.35,1.19,4.55L40,57.28l-8.82,8.25C30,67,29.78,69,31,70.23c1.58,1.61,4.4,1.24,5.94-0.57 c0.08-0.15,0.14-0.19,0.23-0.34l6.32-9.14l7.68,7.24c0.12,0.13,0.19,0.16,0.3,0.29c1.88,1.45,4.72,1.23,5.93-0.67 c0.93-1.44,0.32-3.36-1.17-4.56L46.27,56.6z" fill="#422B0D"/>
    <path d="M84.75,56.6l-8.46-7.87c-1.2-1.49-1.38-3.5-0.16-4.7c1.59-1.6,4.4-1.21,5.93,0.61 c0.08,0.15,0.15,0.19,0.23,0.34l6,8.72l8.13-7.57c0.11-0.13,0.18-0.15,0.29-0.28c1.9-1.44,4.73-1.2,5.93,0.71 c0.92,1.44,0.3,3.35-1.2,4.55L91,57.28l8.82,8.25c1.21,1.49,1.41,3.49,0.19,4.7c-1.57,1.61-4.39,1.24-5.93-0.57 c-0.09-0.15-0.15-0.19-0.23-0.34l-6.32-9.14l-7.69,7.24c-0.11,0.13-0.18,0.16-0.3,0.29c-1.88,1.45-4.71,1.23-5.92-0.67 c-0.94-1.44-0.33-3.36,1.16-4.56L84.75,56.6z" fill="#422B0D"/>
    <g id="eyebrows">
      <path d="M45.6,28.9L45.6,28.9c2.3,0.2,3.2-2.9,0.8-3.6c-1.89-0.51-3.85-0.71-5.8-0.6 c-5.29,0.2-10.3,2.42-14,6.2c-1.7,1.8,0.7,4,2.5,2.7C33.92,30.23,39.73,28.57,45.6,28.9z" fill="#422B0D"/>
      <path d="M82.2,28.9L82.2,28.9c5.9-0.34,11.75,1.31,16.6,4.7c1.8,1.3,4.2-0.9,2.5-2.7 c-3.71-3.76-8.72-5.98-14-6.2c-1.95-0.11-3.91,0.09-5.8,0.6c-0.98,0.28-1.55,1.29-1.27,2.27C80.47,28.44,81.31,29,82.2,28.9" fill="#422B0D"/>
    </g>
  </g>
</svg>

<svg viewBox="0 0 128 128" xmlns="http://www.w3.org/2000/svg">
  <defs>
    <radialGradient id="face_1_" cx="63.6" cy="62.9" gradientUnits="userSpaceOnUse" r="56.9597">
      <stop offset="0.5" stop-color="#FDE030"/>
      <stop offset="0.92" stop-color="#F7C02B"/>
      <stop offset="1" stop-color="#F4A223"/>
    </radialGradient>
  </defs>
  <path id="face" d="M63.6,118.8 C35.7,118.8 5.6,101.3 5.6,62.9 C5.6,24.5 35.7,7 63.6,7 C79.1,7 93.4,12.1 104,21.4 C115.5,31.6 121.6,46 121.6,62.9 C121.6,79.8 115.5,94.1 104,104.3 C93.4,113.6 79,118.8 63.6,118.8 Z" fill="url(#face_1_)"/>
  <path d="M111.49,29.67 C116.82,38.27 119.6,48.51 119.6,59.9 C119.6,76.8 113.5,91.1 102,101.3 C91.4,110.6 77,115.8 61.6,115.8 C43.54,115.8 24.6,108.45 13.42,92.86 C24.18,110.52 44.42,118.8 63.6,118.8 C79,118.8 93.4,113.6 104,104.3 C115.5,94.1 121.6,79.8 121.6,62.9 C121.6,50.16 118.13,38.84 111.49,29.67 Z" fill="#EB8F00"/>
  <path id="mouth" d="M82.56,92.85 C82.56,100.43 74.25,104.85 64,104.85 C53.75,104.85 45.44,100.4 45.44,92.85 C45.44,85.3 53.75,77 64,77 C74.25,77 82.56,85.27 82.56,92.85 Z" fill="#422B0D"/>
  <path d="M46.27,56.6 L54.73,48.73 C55.93,47.24 56.11,45.23 54.9,44.03 C53.31,42.43 50.49,42.82 48.96,44.64 C48.88,44.79 48.82,44.83 48.74,44.98 L42.74,53.7 L34.62,46.13 C34.5,46 34.43,45.98 34.32,45.85 C32.43,44.41 29.59,44.65 28.4,46.56 C27.47,48 28.09,49.91 29.59,51.11 L40,57.28 L31.18,65.53 C30,67 29.78,69 31,70.23 C32.58,71.84 35.4,71.47 36.94,69.66 C37.02,69.51 37.08,69.47 37.17,69.32 L43.49,60.18 L51.17,67.42 C51.29,67.55 51.36,67.58 51.47,67.71 C53.35,69.16 56.19,68.94 57.4,67.04 C58.33,65.6 57.72,63.68 56.23,62.48 L46.27,56.6 Z" fill="#422B0D"/>
  <path d="M84.75,56.6 L76.29,48.73 C75.09,47.24 74.91,45.23 76.13,44.03 C77.72,42.43 80.53,42.82 82.06,44.64 C82.14,44.79 82.21,44.83 82.29,44.98 L88.29,53.7 L96.42,46.13 C96.53,46 96.6,45.98 96.71,45.85 C98.61,44.41 101.44,44.65 102.64,46.56 C103.56,48 102.94,49.91 101.44,51.11 L91,57.28 L99.82,65.53 C101.03,67.02 101.23,69.02 100.01,70.23 C98.44,71.84 95.62,71.47 94.08,69.66 C93.99,69.51 93.93,69.47 93.85,69.32 L87.53,60.18 L79.84,67.42 C79.73,67.55 79.66,67.58 79.54,67.71 C77.66,69.16 74.83,68.94 73.62,67.04 C72.68,65.6 73.29,63.68 74.78,62.48 L84.75,56.6 Z" fill="#422B0D"/>
  <path d="M45.6,28.9 L45.6,28.9 C47.9,29.1 48.8,26 46.4,25.3 C44.51,24.79 42.55,24.59 40.6,24.7 C35.31,24.9 30.3,27.12 26.6,30.9 C24.9,32.7 27.3,34.9 29.1,33.6 C33.92,30.23 39.73,28.57 45.6,28.9 Z" fill="#422B0D"/>
  <path d="M82.2,28.9 L82.2,28.9 C88.1,28.56 93.95,30.21 98.8,33.6 C100.6,34.9 103,32.7 101.3,30.9 C97.59,27.14 92.58,24.92 87.3,24.7 C85.35,24.59 83.39,24.79 81.5,25.3 C80.52,25.58 79.95,26.59 80.23,27.57 C80.47,28.44 81.31,29 82.2,28.9" fill="#422B0D"/>
</svg>
